X: 12
M:2/4
L:1/16
K:D
uA|\
.d2(cd) (Bd)(Ad) | cdef geag | fdcd BdAd | BGEA (FD).D.A |
.d2(cd) (Bd)(Ad) | cdef geag | fdcd BdAd | BGEA (FD).D  :|
|:A|\
((3FED).F.A BcdB | AFAd cdeg | fdge afed | cedB .A2(Ac) |


